static/img/kroki/04614eff3abf569c7937c5c4faf52912.svg

<?xml version="1.0" encoding="us-ascii" standalone="no"?><svg xmlns="http://www.w3.org/2000/svg" xmlns:xlink="http://www.w3.org/1999/xlink" contentStyleType="text/css" height="374px" preserveAspectRatio="none" style="width:222px;height:374px;" version="1.1" viewBox="0 0 222 374" width="222px" zoomAndPan="magnify"><defs/><g><!--class gcp_resource--><g id="elem_gcp_resource"><rect codeLine="23" fill="#3D176E" height="39.7891" id="gcp_resource" rx="2.5" ry="2.5" style="stroke:#000D19;stroke-width:0.5;" width="150" x="36" y="167.79"/><ellipse cx="51" cy="187.6845" fill="#ADD1B2" rx="11" ry="11" style="stroke:#181818;stroke-width:1.0;"/><path d="M53.9688,193.3252 Q53.3906,193.622 52.75,193.7627 Q52.1094,193.9189 51.4063,193.9189 Q48.9063,193.9189 47.5781,192.2783 Q46.2656,190.622 46.2656,187.497 Q46.2656,184.372 47.5781,182.7158 Q48.9063,181.0595 51.4063,181.0595 Q52.1094,181.0595 52.75,181.2158 Q53.4063,181.372 53.9688,181.6689 L53.9688,184.3877 Q53.3438,183.8095 52.75,183.5439 Q52.1563,183.2627 51.5313,183.2627 Q50.1875,183.2627 49.5,184.3408 Q48.8125,185.4033 48.8125,187.497 Q48.8125,189.5908 49.5,190.6689 Q50.1875,191.7314 51.5313,191.7314 Q52.1563,191.7314 52.75,191.4658 Q53.3438,191.1845 53.9688,190.6064 L53.9688,193.3252 Z " fill="#000000"/><text fill="#D9B8FF" font-family="Helvetica" font-size="17" lengthAdjust="spacing" textLength="108" x="70" y="193.5698">gcp_resource</text></g><!--class gcp_sql_backup_run--><g id="elem_gcp_sql_backup_run"><rect codeLine="26" fill="#3D176E" height="39.7891" id="gcp_sql_backup_run" rx="2.5" ry="2.5" style="stroke:#000D19;stroke-width:0.5;" width="208" x="7" y="328.58"/><ellipse cx="22" cy="348.4745" fill="#ADD1B2" rx="11" ry="11" style="stroke:#181818;stroke-width:1.0;"/><path d="M24.9688,354.1152 Q24.3906,354.412 23.75,354.5527 Q23.1094,354.7089 22.4063,354.7089 Q19.9063,354.7089 18.5781,353.0683 Q17.2656,351.412 17.2656,348.287 Q17.2656,345.162 18.5781,343.5058 Q19.9063,341.8495 22.4063,341.8495 Q23.1094,341.8495 23.75,342.0058 Q24.4063,342.162 24.9688,342.4589 L24.9688,345.1777 Q24.3438,344.5995 23.75,344.3339 Q23.1563,344.0527 22.5313,344.0527 Q21.1875,344.0527 20.5,345.1308 Q19.8125,346.1933 19.8125,348.287 Q19.8125,350.3808 20.5,351.4589 Q21.1875,352.5214 22.5313,352.5214 Q23.1563,352.5214 23.75,352.2558 Q24.3438,351.9745 24.9688,351.3964 L24.9688,354.1152 Z " fill="#000000"/><text fill="#D9B8FF" font-family="Helvetica" font-size="17" lengthAdjust="spacing" textLength="166" x="41" y="354.3598">gcp_sql_backup_run</text></g><!--class resource--><g id="elem_resource"><rect codeLine="29" fill="#3D176E" height="39.7891" id="resource" rx="2.5" ry="2.5" style="stroke:#000D19;stroke-width:0.5;" width="113" x="54.5" y="7"/><ellipse cx="69.5" cy="26.8945" fill="#ADD1B2" rx="11" ry="11" style="stroke:#181818;stroke-width:1.0;"/><path d="M72.4688,32.5352 Q71.8906,32.832 71.25,32.9727 Q70.6094,33.1289 69.9063,33.1289 Q67.4063,33.1289 66.0781,31.4883 Q64.7656,29.832 64.7656,26.707 Q64.7656,23.582 66.0781,21.9258 Q67.4063,20.2695 69.9063,20.2695 Q70.6094,20.2695 71.25,20.4258 Q71.9063,20.582 72.4688,20.8789 L72.4688,23.5977 Q71.8438,23.0195 71.25,22.7539 Q70.6563,22.4727 70.0313,22.4727 Q68.6875,22.4727 68,23.5508 Q67.3125,24.6133 67.3125,26.707 Q67.3125,28.8008 68,29.8789 Q68.6875,30.9414 70.0313,30.9414 Q70.6563,30.9414 71.25,30.6758 Q71.8438,30.3945 72.4688,29.8164 L72.4688,32.5352 Z " fill="#000000"/><text fill="#D9B8FF" font-family="Helvetica" font-size="17" lengthAdjust="spacing" textLength="71" x="88.5" y="32.7798">resource</text></g><!--reverse link resource to gcp_resource--><g id="link_resource_gcp_resource"><path codeLine="32" d="M111,65.05 C111,95.57 111,136.9 111,167.46 " fill="none" id="resource-backto-gcp_resource" style="stroke:#FFAF37;stroke-width:2.0;"/><polygon fill="none" points="111,47.05,105,65.05,117,65.05,111,47.05" style="stroke:#FFAF37;stroke-width:2.0;"/></g><!--reverse link gcp_resource to gcp_sql_backup_run--><g id="link_gcp_resource_gcp_sql_backup_run"><path codeLine="33" d="M111,225.84 C111,256.36 111,297.69 111,328.25 " fill="none" id="gcp_resource-backto-gcp_sql_backup_run" style="stroke:#FFAF37;stroke-width:2.0;"/><polygon fill="none" points="111,207.84,105,225.84,117,225.84,111,207.84" style="stroke:#FFAF37;stroke-width:2.0;"/></g><!--SRC=[XP3BJiCm44Nt_WfBNKTAg22DnAP4Gh2f46LVEVOuiPBOOUnGbSU_ar0eJjB7SkQUkNDd2YM0Gjsu7QsXpW0jiQNI3KDMqoMYsQQcCaXdKZ8vZyVYlT7k8h1YDT07gDx0ASx6n4kXUAd1MdhbINUCbpcQLekzlKEcRIU1TXwLLipQfNEeijQ15qOasKBACJasdSr55D_013Ce07-HC0n5b8oHYwlEtdqWrkeTQEG_RMKSJ69ELlnGPrFsX1ToSkYVVZBZ4nD2wPnUUxtdVIRKW8F-kc32R7jQiihwQwm31EDs3QIJgo1P21aVXHzFmOJthwCvRpO8rhJ8WNuGykNrxMkroRhnjaDQxQl3YKDr-na4mS2I3Fp_zQ4r-GO0]--></g></svg>

<svg xmlns="http://www.w3.org/2000/svg" width="222" height="374" viewBox="0 0 222 374"><rect width="150" height="39.789" x="36" y="167.79" fill="#3D176E" rx="2.5" ry="2.5" style="stroke:#000d19;stroke-width:.5"/><circle cx="51" cy="187.685" r="11" fill="#ADD1B2" style="stroke:#181818;stroke-width:1"/><path d="M53.969 193.325q-.578.297-1.219.438-.64.156-1.344.156-2.5 0-3.828-1.64-1.312-1.657-1.312-4.782t1.312-4.781q1.328-1.656 3.828-1.656.703 0 1.344.156.656.156 1.219.453v2.719q-.625-.578-1.219-.844-.594-.281-1.219-.281-1.343 0-2.031 1.078-.687 1.062-.687 3.156t.687 3.172q.688 1.062 2.031 1.062.625 0 1.219-.265.594-.281 1.219-.86z"/><text x="70" y="193.57" fill="#D9B8FF" font-family="Helvetica" font-size="17" textLength="108">gcp_resource</text><rect width="208" height="39.789" x="7" y="328.58" fill="#3D176E" rx="2.5" ry="2.5" style="stroke:#000d19;stroke-width:.5"/><circle cx="22" cy="348.474" r="11" fill="#ADD1B2" style="stroke:#181818;stroke-width:1"/><path d="M24.969 354.115q-.578.297-1.219.438-.64.156-1.344.156-2.5 0-3.828-1.64-1.312-1.657-1.312-4.782t1.312-4.781q1.328-1.656 3.828-1.656.703 0 1.344.156.656.156 1.219.453v2.719q-.625-.579-1.219-.844-.594-.281-1.219-.281-1.343 0-2.031 1.078-.687 1.062-.687 3.156t.687 3.172q.688 1.062 2.031 1.062.625 0 1.219-.265.594-.281 1.219-.86z"/><text x="41" y="354.36" fill="#D9B8FF" font-family="Helvetica" font-size="17" textLength="166">gcp_sql_backup_run</text><rect width="113" height="39.789" x="54.5" y="7" fill="#3D176E" rx="2.5" ry="2.5" style="stroke:#000d19;stroke-width:.5"/><circle cx="69.5" cy="26.895" r="11" fill="#ADD1B2" style="stroke:#181818;stroke-width:1"/><path d="M72.469 32.535q-.578.297-1.219.438-.64.156-1.344.156-2.5 0-3.828-1.64-1.312-1.657-1.312-4.782t1.312-4.781q1.328-1.656 3.828-1.656.703 0 1.344.156.656.156 1.219.453v2.719q-.625-.578-1.219-.844-.594-.281-1.219-.281-1.344 0-2.031 1.078-.687 1.062-.687 3.156T68 29.879q.688 1.062 2.031 1.062.625 0 1.219-.265.594-.281 1.219-.86z"/><text x="88.5" y="32.78" fill="#D9B8FF" font-family="Helvetica" font-size="17" textLength="71">resource</text><path fill="none" d="M111 65.05v102.41m0-120.41-6 18h12zm0 178.79v102.41m0-120.41-6 18h12z" style="stroke:#ffaf37;stroke-width:2"/></svg>
